X:30
T:Morrison's Jig
T:Stick Across the Hob, The
R:jig
Z:id:hn-jig-30
M:6/8
K:Edor
~E3 ~B3|~E3 AFD|~E3 BAB|dcB AFD|~E3 BAB|~E3 AFD|~G3 FGA|dAG FED:|
Bee fee|aee fed|Bee fee|a2g fed|Bee fee|aee fed|gfe d2A|BAG FED|
Bee fee|aee fed|Bee fee|faf def|~g3 gfe|def g2d|edc d2A|BAG FED||
P:Variations of 1st part:
EBE BEB|EBE AFD|EDE BAB|dcB AFD|EBE BEB|EBE AFD|~G3 FGA|dAG FED:|
<end>
<start>
